svgs/sharp-light/hexagon-divide.svg

<svg xmlns="http://www.w3.org/2000/svg" viewBox="0 0 512 512"><!--! Font Awesome Pro 6.4.0 by @fontawesome - https://fontawesome.com License - https://fontawesome.com/license (Commercial License) Copyright 2023 Fonticons, Inc. --><path d="M36.9 256L146.6 64H365.4L475.1 256 365.4 448H146.6L36.9 256zM128 32L0 256 128 480H384L512 256 384 32H128zM280 136H232v48h48V136zM160 240H144v32h16H352h16V240H352 160zm72 88v48h48V328H232z"/></svg>

<svg xmlns="http://www.w3.org/2000/svg" viewBox="0 0 512 512"><!--! Font Awesome Pro 6.6.0 by @fontawesome - https://fontawesome.com License - https://fontawesome.com/license (Commercial License) Copyright 2024 Fonticons, Inc. --><path d="M36.9 256L146.6 64l218.9 0L475.1 256 365.4 448l-218.9 0L36.9 256zM128 32L0 256 128 480l256 0L512 256 384 32 128 32zM280 136l-48 0 0 48 48 0 0-48zM160 240l-16 0 0 32 16 0 192 0 16 0 0-32-16 0-192 0zm72 88l0 48 48 0 0-48-48 0z"/></svg>
